dist/img/header/icons/Phone.svg

<svg width="69" height="69" viewBox="0 0 69 69" fill="none" xmlns="http://www.w3.org/2000/svg">
<circle cx="34.5" cy="34.5" r="34.5" fill="#876191"/>
<path d="M25.2431 32.4247C27.7231 37.2986 31.71 41.2856 36.5925 43.7656L40.3814 39.9681C40.855 39.4944 41.5353 39.3567 42.1294 39.5461C44.0583 40.1833 46.1336 40.5278 48.2778 40.5278C49.2336 40.5278 50 41.2942 50 42.25V48.2778C50 49.2336 49.2336 50 48.2778 50C32.1061 50 19 36.8939 19 20.7222C19 19.7664 19.775 19 20.7222 19H26.75C27.7058 19 28.4722 19.7664 28.4722 20.7222C28.4722 22.8664 28.8167 24.9417 29.4539 26.8706C29.6433 27.4647 29.5056 28.145 29.0319 28.6186L25.2431 32.4247Z" fill="white"/>
</svg>

<svg width="69" height="69" fill="none" xmlns="http://www.w3.org/2000/svg"><circle cx="34.5" cy="34.5" r="34.5" fill="#876191"/><path d="M25.243 32.425a25.936 25.936 0 0 0 11.35 11.34l3.788-3.797a1.728 1.728 0 0 1 1.748-.422c1.93.637 4.005.982 6.149.982.956 0 1.722.766 1.722 1.722v6.028c0 .956-.766 1.722-1.722 1.722C32.106 50 19 36.894 19 20.722c0-.956.775-1.722 1.722-1.722h6.028c.956 0 1.722.766 1.722 1.722 0 2.144.345 4.22.982 6.149.19.594.052 1.274-.422 1.748l-3.789 3.806Z" fill="#fff"/></svg>
